X: 303
T: Colonel McBain
R: reel
M: C
L: 1/8
Z: 2012 John Chambers <jc:trillian.mit.edu>
B: J. Anderson "Budget of Strathspeys, Reels and Country Dances" (Early 1800s) p.30 #3
F: http://imslp.org/wiki/Anderson%27s_Budget_of_Strathspeys,_Reels_and_Country_Dances_(Various)
K: Am
d |\
(c/d/e) (Ae) cAec | BdGd BGdB | (c/d/e) (Ae) cAec | BGEG A3 :|
B |\
(ce).g.e (ce).g.e | dedc cBAG | Aaab c'bag | ac'ag a2a2 |
gc'ge cege | dedc BcdB | ceag aedf | ecdB A2A |]

%%sep 2 1 500
%%sep 1 1 500

